X: 747
T: Nothing Can Sadden Us
M:6/8
L:1/8
B:O'Neill's 747
R:Jig
Z:"Transcribed by Bob Safranek, rjs@gsp.org"
K:A
   (A/B/) | cdc BcB  | ABA  Ace | fga  edc | c>BB Bed  |
	    c3  BAB  | A>BA Ace | fga  edc | dBG  A2  :|
   (e/d/) | cde e2 e | efe  fga | e>dc cBA | G>AB B2 e |
	    cde e2 e | e>fe fga | e>dc cBA | G>AB Bed  |
	    c3  BAB  | A2 A Ace | f>ga edc | c>BB B2 (e/d/) |
	    cdc BcB  | ABA  Ace | fga  edc | dBG  A2  :|


